X:1
T:Finnegan's Wake
N:played by Sally Sloane on melodeon
Z: Ian Hayden 2017
M:4/4
L:1/4
K:Gmaj
|B B/2B/2  B A| B d e d| g g/g/ g d| e d A2| 
B B/2B/2 B A|B ded| g g/2g/2 g d| BAG2| 
g g/2g/2 g a|g f e d| g g/2g/2 g a| g f ef| 
g g/2g/2 g a| g f e d|ee/e/ e d| e f g2| 
B B/2B/2  B A| B d e d| g g/g/ g d| e d A2|
B B/2B/2 B A|B ded| g g/2g/2 g d| BAG2|]
